X: 10
T: The Road To Skye
R: jig
M: 6/8
L: 1/8
K: Gmaj
GFG DB,D | GBd e2 d | gdB BAB | cBc E2 F |GFG DB,D | GBd e2 d | gdB BAB | cEF G2 :|GBd GBd | GBd cBA | GBd efg | fd^c def |gbg faf | ece ~d2 B | cBc Adc | BGF G2 :|


Tune 1709	Setting 15137

